Simply-Purple-Circles/scalable/apps/scim-setup.svg

<svg xmlns="http://www.w3.org/2000/svg" width="48" height="48" viewBox="0 0 12.7 12.7"><path d="M6.344.072a6.29 6.29 0 0 0-6.29 6.29 6.29 6.29 0 0 0 6.29 6.289 6.29 6.29 0 0 0 6.29-6.29 6.29 6.29 0 0 0-6.29-6.29zm-.018.937a5.407 5.407 0 0 1 5.407 5.407 5.407 5.407 0 0 1-5.407 5.407A5.407 5.407 0 0 1 .92 6.416 5.407 5.407 0 0 1 6.326 1.01zM5.011 2.646v1.042H3.215v.637H5.01v1.19c-.807.272-1.574.808-1.927 1.605-.272.648-.311 1.478.147 2.052.493.559 1.345.537 1.993.303 1.203-.467 2.088-1.52 2.616-2.668.175-.236.167-.9.55-.533.604.339.81 1.126.61 1.76-.254.79-1.072 1.217-1.842 1.35l.19.67a3.743 3.743 0 0 0 1.297-.476c.724-.426 1.218-1.238 1.17-2.088A2.059 2.059 0 0 0 8.81 5.72c-.917-.557-2.05-.54-3.078-.396v-1h3.752v-.636H5.734V2.646h-.723zm1.57 3.265h.001c.286-.01.572.003.853.04-.34.952-.886 1.86-1.701 2.477V6.016c.279-.059.562-.094.847-.105zm-1.57.338v2.594c-.254.092-.533.152-.802.092-.425-.074-.6-.537-.58-.922-.01-.825.67-1.462 1.382-1.764z" fill="#963996"/></svg>

<?xml version="1.0" encoding="UTF-8" standalone="no"?>
<svg
   xmlns:dc="http://purl.org/dc/elements/1.1/"
   xmlns:cc="http://creativecommons.org/ns#"
   xmlns:rdf="http://www.w3.org/1999/02/22-rdf-syntax-ns#"
   xmlns:svg="http://www.w3.org/2000/svg"
   xmlns="http://www.w3.org/2000/svg"
   xmlns:sodipodi="http://sodipodi.sourceforge.net/DTD/sodipodi-0.dtd"
   xmlns:inkscape="http://www.inkscape.org/namespaces/inkscape"
   width="48"
   height="48"
   viewBox="0 0 12.7 12.7"
   version="1.1"
   id="svg4"
   sodipodi:docname="scim-setup.svg"
   inkscape:version="0.92.4 (5da689c313, 2019-01-14)">
  <metadata
     id="metadata10">
    <rdf:RDF>
      <cc:Work
         rdf:about="">
        <dc:format>image/svg+xml</dc:format>
        <dc:type
           rdf:resource="http://purl.org/dc/dcmitype/StillImage" />
        <dc:title></dc:title>
      </cc:Work>
    </rdf:RDF>
  </metadata>
  <defs
     id="defs8" />
  <sodipodi:namedview
     pagecolor="#ffffff"
     bordercolor="#666666"
     borderopacity="1"
     objecttolerance="10"
     gridtolerance="10"
     guidetolerance="10"
     inkscape:pageopacity="0"
     inkscape:pageshadow="2"
     inkscape:window-width="1087"
     inkscape:window-height="480"
     id="namedview6"
     showgrid="false"
     inkscape:zoom="4.9166667"
     inkscape:cx="2.1355932"
     inkscape:cy="24"
     inkscape:window-x="0"
     inkscape:window-y="25"
     inkscape:window-maximized="0"
     inkscape:current-layer="svg4" />
  <path
     d="m 6.344,0.072 a 6.29,6.29 0 0 0 -6.29,6.29 6.29,6.29 0 0 0 6.29,6.289 6.29,6.29 0 0 0 6.29,-6.29 6.29,6.29 0 0 0 -6.29,-6.29 z M 6.326,1.009 A 5.407,5.407 0 0 1 11.733,6.416 5.407,5.407 0 0 1 6.326,11.823 5.407,5.407 0 0 1 0.92,6.416 5.407,5.407 0 0 1 6.326,1.01 Z M 5.011,2.646 V 3.688 H 3.215 V 4.325 H 5.01 v 1.19 C 4.203,5.787 3.436,6.323 3.083,7.12 2.811,7.768 2.772,8.598 3.23,9.172 3.723,9.731 4.575,9.709 5.223,9.475 6.426,9.008 7.311,7.955 7.839,6.807 8.014,6.571 8.006,5.907 8.389,6.274 8.993,6.613 9.199,7.4 8.999,8.034 8.745,8.824 7.927,9.251 7.157,9.384 l 0.19,0.67 A 3.743,3.743 0 0 0 8.644,9.578 C 9.368,9.152 9.862,8.34 9.814,7.49 A 2.059,2.059 0 0 0 8.81,5.72 C 7.893,5.163 6.76,5.18 5.732,5.324 v -1 H 9.484 V 3.688 H 5.734 V 2.646 Z m 1.57,3.265 H 6.582 C 6.868,5.901 7.154,5.914 7.435,5.951 7.095,6.903 6.549,7.811 5.734,8.428 V 6.016 C 6.013,5.957 6.296,5.922 6.581,5.911 Z M 5.011,6.249 V 8.843 C 4.757,8.935 4.478,8.995 4.209,8.935 3.784,8.861 3.609,8.398 3.629,8.013 3.619,7.188 4.299,6.551 5.011,6.249 Z"
     id="path2"
     inkscape:connector-curvature="0"
     style="fill:#963996" />
</svg>
